src/assets/images/mobile/TweeterIcon.svg

<svg width="30" height="25" viewBox="0 0 30 25" fill="none" xmlns="http://www.w3.org/2000/svg">
<path d="M9.43467 25C20.756 25 26.9472 15.3828 26.9472 7.04302C26.9472 6.76989 26.9418 6.498 26.9298 6.22724C28.1344 5.3335 29.174 4.22684 30 2.95914C28.8972 3.46185 27.7104 3.80022 26.4655 3.95278C27.7361 3.17137 28.7117 1.93546 29.172 0.462034C27.9637 1.19702 26.6419 1.71512 25.2636 1.99399C24.1404 0.767269 22.5415 0 20.7708 0C17.3718 0 14.6154 2.8264 14.6154 6.31033C14.6154 6.80561 14.6695 7.28736 14.7751 7.74939C9.65957 7.48545 5.12349 4.97409 2.08769 1.15539C1.54092 2.11847 1.25331 3.21312 1.25424 4.32749C1.25424 6.51709 2.34087 8.45008 3.99327 9.58091C3.01587 9.55033 2.0599 9.27963 1.20572 8.79155C1.20482 8.81808 1.20482 8.84388 1.20482 8.87217C1.20482 11.9287 3.32643 14.4806 6.14277 15.0588C5.61381 15.2066 5.068 15.2813 4.51977 15.281C4.13153 15.2807 3.74418 15.2426 3.36297 15.1671C4.14659 17.6748 6.41881 19.4996 9.11273 19.5506C7.00611 21.2437 4.35236 22.2521 1.46817 22.2521C0.971967 22.2521 0.481806 22.2232 0 22.1647C2.72402 23.9551 5.95854 24.9997 9.43497 24.9997" fill="#7FDEE4"/>
</svg>

<svg width="30" height="25" fill="none" xmlns="http://www.w3.org/2000/svg"><path d="M9.435 25c11.321 0 17.512-9.617 17.512-17.957 0-.273-.005-.545-.017-.816 1.204-.894 2.244-2 3.07-3.268-1.103.503-2.29.841-3.535.994A6.31 6.31 0 0 0 29.172.462a12.16 12.16 0 0 1-3.908 1.532A6.078 6.078 0 0 0 20.77 0c-3.4 0-6.156 2.826-6.156 6.31 0 .496.054.977.16 1.44C9.66 7.484 5.123 4.973 2.088 1.154a6.417 6.417 0 0 0-.834 3.172 6.35 6.35 0 0 0 2.74 5.254 5.994 5.994 0 0 1-2.788-.79l-.001.081c0 3.057 2.121 5.609 4.938 6.187a6.017 6.017 0 0 1-2.78.108c.784 2.508 3.056 4.333 5.75 4.384A12.155 12.155 0 0 1 0 22.165 17.11 17.11 0 0 0 9.435 25" fill="#7FDEE4"/></svg>
